images/SocialMediaIcons/LinkedinIcon.svg

<?xml version="1.0" encoding="UTF-8" standalone="no"?>
<svg width="40px" height="41px" viewBox="0 0 40 41" version="1.1" xmlns="http://www.w3.org/2000/svg" xmlns:xlink="http://www.w3.org/1999/xlink" xmlns:sketch="http://www.bohemiancoding.com/sketch/ns">
    <!-- Generator: Sketch 3.3 (11970) - http://www.bohemiancoding.com/sketch -->
    <title>Fill 9</title>
    <desc>Created with Sketch.</desc>
    <defs></defs>
    <g id="Welcome" stroke="none" stroke-width="1" fill="none" fill-rule="evenodd" sketch:type="MSPage">
        <path d="M20.0934694,40.1666667 C9.2722449,40.1666667 0.5,31.2133333 0.5,20.1666667 C0.5,9.12166667 9.2722449,0.166666667 20.0934694,0.166666667 C30.9130612,0.166666667 39.6853061,9.12166667 39.6853061,20.1666667 C39.6853061,31.2133333 30.9130612,40.1666667 20.0934694,40.1666667 Z M7.8477551,16 L13.5620408,16 L13.5620408,32.6666667 L7.8477551,32.6666667 L7.8477551,16 Z M32.337551,23.5075 C32.337551,19.01 31.3873469,16 26.2518367,16 C23.7840816,16 22.1269388,16.9358333 21.4493878,18.2491667 L21.3791837,18.2491667 L21.3791837,16 L16.8273469,16 L16.8273469,32.6666667 L21.584898,32.6666667 L21.584898,24.4058333 C21.584898,22.2275 21.9881633,20.1175 24.6289796,20.1175 C27.2289796,20.1175 27.4395918,22.6091667 27.4395918,24.5458333 L27.4395918,32.6666667 L32.337551,32.6666667 L32.337551,23.5075 Z M10.704898,13.5 C12.2812245,13.5 13.5620408,12.1933333 13.5620408,10.5833333 C13.5620408,8.9725 12.2812245,7.66666667 10.704898,7.66666667 C9.12530612,7.66666667 7.8477551,8.9725 7.8477551,10.5833333 C7.8477551,12.1933333 9.12530612,13.5 10.704898,13.5 Z" id="Fill-9" fill="#0668A0" sketch:type="MSShapeGroup"></path>
    </g>
</svg>

<svg width="40" height="41" xmlns="http://www.w3.org/2000/svg">
 <!-- Generator: Sketch 3.3 (11970) - http://www.bohemiancoding.com/sketch -->
 <title>Fill 9</title>
 <desc>Created with Sketch.</desc>
 <g>
  <title>Layer 1</title>
  <circle fill="#ffffff" stroke="#ffffff" stroke-width="0" cx="20.33333" cy="20.7037" r="17.93504" id="svg_1"/>
  <g id="Welcome" fill="none" fill-rule="evenodd">
   <path d="m20.09347,40.166672c-10.82123,0 -19.59347,-8.953342 -19.59347,-20.000002c0,-11.045 8.77224,-20 19.59347,-20c10.81959,0 19.591841,8.955 19.591841,20c0,11.046659 -8.772251,20.000002 -19.591841,20.000002zm-12.245709,-24.166672l5.71428,0l0,16.666672l-5.71428,0l0,-16.666672zm24.489791,7.5075c0,-4.497499 -0.950201,-7.5075 -6.085711,-7.5075c-2.46776,0 -4.124901,0.935829 -4.80245,2.24917l-0.07021,0l0,-2.24917l-4.55183,0l0,16.666672l4.757549,0l0,-8.260841c0,-2.178329 0.403259,-4.28833 3.044081,-4.28833c2.599998,0 2.81061,2.491671 2.81061,4.428329l0,8.120842l4.897961,0l0,-9.159172zm-21.632651,-10.0075c1.576321,0 2.857141,-1.30667 2.857141,-2.91667c0,-1.61083 -1.28082,-2.91666 -2.857141,-2.91666c-1.57959,0 -2.85714,1.30583 -2.85714,2.91666c0,1.61 1.27755,2.91667 2.85714,2.91667z" id="Fill-9" fill="#0668A0"/>
  </g>
 </g>
</svg>
